src/assets/cart.svg

<svg width="28" height="29" viewBox="0 0 28 29" fill="none" xmlns="http://www.w3.org/2000/svg">
<rect y="0.5" width="28" height="28" rx="14" fill="white"/>
<path d="M18.8 19.3C17.912 19.3 17.2 20.012 17.2 20.9C17.2 21.3243 17.3686 21.7313 17.6686 22.0314C17.9687 22.3314 18.3757 22.5 18.8 22.5C19.2243 22.5 19.6313 22.3314 19.9314 22.0314C20.2314 21.7313 20.4 21.3243 20.4 20.9C20.4 20.4757 20.2314 20.0687 19.9314 19.7686C19.6313 19.4686 19.2243 19.3 18.8 19.3ZM6 6.5V8.1H7.6L10.48 14.172L9.392 16.132C9.272 16.356 9.2 16.62 9.2 16.9C9.2 17.3243 9.36857 17.7313 9.66863 18.0314C9.96869 18.3314 10.3757 18.5 10.8 18.5H20.4V16.9H11.136C11.083 16.9 11.0321 16.8789 10.9946 16.8414C10.9571 16.8039 10.936 16.753 10.936 16.7C10.936 16.66 10.944 16.628 10.96 16.604L11.68 15.3H17.64C18.24 15.3 18.768 14.964 19.04 14.476L21.904 9.3C21.96 9.172 22 9.036 22 8.9C22 8.68783 21.9157 8.48434 21.7657 8.33431C21.6157 8.18429 21.4122 8.1 21.2 8.1H9.368L8.616 6.5M10.8 19.3C9.912 19.3 9.2 20.012 9.2 20.9C9.2 21.3243 9.36857 21.7313 9.66863 22.0314C9.96869 22.3314 10.3757 22.5 10.8 22.5C11.2243 22.5 11.6313 22.3314 11.9314 22.0314C12.2314 21.7313 12.4 21.3243 12.4 20.9C12.4 20.4757 12.2314 20.0687 11.9314 19.7686C11.6313 19.4686 11.2243 19.3 10.8 19.3Z" fill="black"/>
</svg>

<svg xmlns="http://www.w3.org/2000/svg" width="28" height="29" fill="none" viewBox="0 0 28 29"><rect width="28" height="28" y=".5" fill="#fff" rx="14"/><path fill="#000" d="M18.8 19.3a1.6 1.6 0 1 0 0 3.2 1.6 1.6 0 0 0 0-3.2M6 6.5v1.6h1.6l2.88 6.072-1.088 1.96a1.6 1.6 0 0 0-.192.768 1.6 1.6 0 0 0 1.6 1.6h9.6v-1.6h-9.264a.2.2 0 0 1-.2-.2.17.17 0 0 1 .024-.096l.72-1.304h5.96c.6 0 1.128-.336 1.4-.824L21.904 9.3c.056-.128.096-.264.096-.4a.8.8 0 0 0-.8-.8H9.368l-.752-1.6M10.8 19.3a1.6 1.6 0 1 0 0 3.2 1.6 1.6 0 0 0 0-3.2"/></svg>
